public/images/hero-4.svg

<svg width="110" height="110" viewBox="0 0 110 110" fill="none" xmlns="http://www.w3.org/2000/svg">
<g clip-path="url(#clip0)">
<path d="M64.1667 58.6666V69.6666C64.1667 73.7167 67.45 77 71.5 77H97.1667V97.1666C97.1667 103.242 92.2418 108.167 86.1667 108.167H12.8334C6.75824 108.167 1.83337 103.242 1.83337 97.1666V31.1666C1.83337 25.0915 6.75824 20.1666 12.8334 20.1666H86.1667C92.2418 20.1666 97.1667 25.0915 97.1667 31.1666V51.3333H71.5C67.45 51.3333 64.1667 54.6165 64.1667 58.6666Z" fill="#E8EDFC"/>
<path d="M86.1667 20.1666H80.6667C86.7418 20.1666 91.6667 25.0915 91.6667 31.1666V51.3333H97.1667V31.1666C97.1667 25.0915 92.2418 20.1666 86.1667 20.1666Z" fill="#CAD9FC"/>
<path d="M71.5 51.3333H66C61.9499 51.3333 58.6667 54.6166 58.6667 58.6666V69.6667C58.6667 73.7167 61.9499 77 66 77H71.5C67.4499 77 64.1667 73.7167 64.1667 69.6667V58.6666C64.1667 54.6166 67.4499 51.3333 71.5 51.3333Z" fill="#CAD9FC"/>
<path d="M91.6667 97.1667C91.6667 103.242 86.7418 108.167 80.6667 108.167H86.1667C92.2418 108.167 97.1667 103.242 97.1667 97.1667V77H91.6667V97.1667Z" fill="#CAD9FC"/>
<path d="M100.833 51.3333H71.5C67.4499 51.3333 64.1667 54.6166 64.1667 58.6666V69.6667C64.1667 73.7167 67.4499 77 71.5 77H100.833C104.883 77 108.167 73.7167 108.167 69.6667V58.6666C108.167 54.6166 104.883 51.3333 100.833 51.3333Z" fill="#E8EDFC"/>
<path d="M100.833 51.3333H95.3333C99.3834 51.3333 102.667 54.6166 102.667 58.6666V69.6667C102.667 73.7167 99.3834 77 95.3333 77H100.833C104.883 77 108.167 73.7167 108.167 69.6667V58.6666C108.167 54.6166 104.883 51.3333 100.833 51.3333Z" fill="#CAD9FC"/>
<path d="M77 69.6666C80.0376 69.6666 82.5 67.2042 82.5 64.1666C82.5 61.1291 80.0376 58.6666 77 58.6666C73.9624 58.6666 71.5 61.1291 71.5 64.1666C71.5 67.2042 73.9624 69.6666 77 69.6666Z" fill="#A4C2F7"/>
<path d="M18.3333 20.1666C18.3333 20.1666 22.1118 6.46062 42.889 10.3766C55.7516 12.8003 65.5875 5.70528 69.4448 2.29895C69.8838 1.91108 70.4808 1.75456 71.0536 1.87715C71.6264 1.99973 72.107 2.38689 72.3488 2.92045L80.6667 20.1666H18.3333Z" fill="#A4C2F7"/>
<path d="M72.3488 2.92045C72.107 2.38689 71.6264 1.99973 71.0536 1.87715C70.4807 1.75456 69.8838 1.91108 69.4448 2.29895C68.882 2.79578 68.1761 3.37695 67.3658 3.99112L75.1666 20.1666H80.6666L72.3488 2.92045Z" fill="#7FACFA"/>
<path d="M12.8334 108.167H18.3334C12.2582 108.167 7.33337 103.242 7.33337 97.1666V31.1666C7.33337 25.0915 12.2582 20.1666 18.3334 20.1666H12.8334C6.75824 20.1666 1.83337 25.0915 1.83337 31.1666V97.1666C1.83337 103.242 6.75824 108.167 12.8334 108.167Z" fill="white"/>
<path d="M38.6448 9.81382C21.6076 8.40582 18.3333 20.1666 18.3333 20.1666H23.8333C23.8333 20.1666 26.3707 11.0165 38.6448 9.81382Z" fill="white"/>
<path d="M0 31.1666H3.66667V45.8333H0V31.1666Z" fill="white"/>
<path d="M1.83333 40.3332C2.84586 40.3332 3.66667 39.5124 3.66667 38.4999C3.66667 37.4874 2.84586 36.6666 1.83333 36.6666C0.820811 36.6666 0 37.4874 0 38.4999C0 39.5124 0.820811 40.3332 1.83333 40.3332Z" fill="#428DFF"/>
<path d="M12.8333 110H86.1667C93.251 109.992 98.9919 104.251 99 97.1668V78.8334H100.833C105.893 78.8274 109.994 74.7269 110 69.6668V58.6668C109.994 53.6067 105.893 49.5062 100.833 49.5001H99V31.1668C98.9919 24.0825 93.251 18.3415 86.1667 18.3334H81.818L73.9988 2.12493C73.4992 1.06518 72.5276 0.304348 71.379 0.073427C70.2554 -0.158124 69.0885 0.154509 68.2312 0.916761C64.7643 3.98759 55.3868 10.8718 43.2282 8.5746C25.0525 5.14993 18.7917 14.6961 17.0995 18.3334H12.8333C5.74903 18.3415 0.00808251 24.0825 0 31.1668C0 32.1793 0.820811 33.0001 1.83333 33.0001C2.84586 33.0001 3.66667 32.1793 3.66667 31.1668C3.67273 26.1067 7.77324 22.0062 12.8333 22.0001H86.1667C91.2268 22.0062 95.3273 26.1067 95.3333 31.1668V49.5001H71.5C66.4399 49.5062 62.3394 53.6067 62.3333 58.6668V69.6668C62.3394 74.7269 66.4399 78.8274 71.5 78.8334H95.3333V82.5001H91.6667C90.6541 82.5001 89.8333 83.3209 89.8333 84.3334C89.8333 85.346 90.6541 86.1668 91.6667 86.1668H95.3333V97.1668C95.3273 102.227 91.2268 106.327 86.1667 106.333H12.8333C7.77324 106.327 3.67273 102.227 3.66667 97.1668V45.8334C3.66667 44.8209 2.84586 44.0001 1.83333 44.0001C0.820811 44.0001 0 44.8209 0 45.8334V97.1668C0.00808251 104.251 5.74903 109.992 12.8333 110ZM42.5498 12.1789C56.2998 14.7694 66.7865 7.09326 70.697 3.71809L77.7462 18.3334H21.2483C23.364 15.0334 28.9813 9.6196 42.5498 12.1789ZM66 69.6668V58.6668C66 55.6292 68.4624 53.1668 71.5 53.1668H100.833C103.871 53.1668 106.333 55.6292 106.333 58.6668V69.6668C106.333 72.7043 103.871 75.1668 100.833 75.1668H71.5C68.4624 75.1668 66 72.7043 66 69.6668Z" fill="#428DFF"/>
<path d="M9.16665 73.3333C8.15412 73.3333 7.33331 74.1541 7.33331 75.1666V97.1667C7.33331 100.204 9.79575 102.667 12.8333 102.667H18.3333C19.3458 102.667 20.1666 101.846 20.1666 100.833C20.1666 99.8208 19.3458 99 18.3333 99H12.8333C11.8208 99 11 98.1792 11 97.1667V75.1666C11 74.1541 10.1792 73.3333 9.16665 73.3333Z" fill="#428DFF"/>
<path d="M27.5 102.667C28.5125 102.667 29.3333 101.846 29.3333 100.833C29.3333 99.8207 28.5125 98.9999 27.5 98.9999H25.6666C24.6541 98.9999 23.8333 99.8207 23.8333 100.833C23.8333 101.846 24.6541 102.667 25.6666 102.667H27.5Z" fill="#428DFF"/>
<path d="M89.8333 45.8333C90.8458 45.8333 91.6666 45.0125 91.6666 44V31.1666C91.6666 28.1291 89.2042 25.6666 86.1666 25.6666H80.6666C79.6541 25.6666 78.8333 26.4874 78.8333 27.5C78.8333 28.5125 79.6541 29.3333 80.6666 29.3333H86.1666C87.1792 29.3333 88 30.1541 88 31.1666V44C88 45.0125 88.8208 45.8333 89.8333 45.8333Z" fill="#428DFF"/>
<path d="M73.3333 29.3333C74.3458 29.3333 75.1666 28.5125 75.1666 27.5C75.1666 26.4874 74.3458 25.6666 73.3333 25.6666H71.5C70.4874 25.6666 69.6666 26.4874 69.6666 27.5C69.6666 28.5125 70.4874 29.3333 71.5 29.3333H73.3333Z" fill="#428DFF"/>
<path d="M77 56.8333C72.9499 56.8333 69.6666 60.1166 69.6666 64.1667C69.6666 68.2167 72.9499 71.5 77 71.5C81.0501 71.5 84.3333 68.2167 84.3333 64.1667C84.3333 60.1166 81.0501 56.8333 77 56.8333ZM77 67.8333C74.9749 67.8333 73.3333 66.1917 73.3333 64.1667C73.3333 62.1416 74.9749 60.5 77 60.5C79.025 60.5 80.6666 62.1416 80.6666 64.1667C80.6666 66.1917 79.025 67.8333 77 67.8333Z" fill="#428DFF"/>
<path d="M84.3333 86.1667C85.3458 86.1667 86.1667 85.3458 86.1667 84.3333C86.1667 83.3208 85.3458 82.5 84.3333 82.5H75.1666C74.1541 82.5 73.3333 83.3208 73.3333 84.3333C73.3333 85.3458 74.1541 86.1667 75.1666 86.1667H84.3333Z" fill="#428DFF"/>
</g>
<defs>
<clipPath id="clip0">
<rect width="110" height="110" fill="white"/>
</clipPath>
</defs>
</svg>

<?xml version="1.0" encoding="UTF-8"?>
<svg fill="none" viewBox="0 0 110 110" xmlns="http://www.w3.org/2000/svg">
  <g clip-path="url(#a)">
    <path d="m64.167 58.667v11c0 4.0501 3.2833 7.3334 7.3333 7.3334h25.667v20.167c0 6.0754-4.9249 11-11 11h-73.333c-6.0752 0-11-4.925-11-11v-66c0-6.0751 4.9249-11 11-11h73.333c6.0751 0 11 4.9249 11 11v20.167h-25.667c-4.05 0-7.3333 3.2832-7.3333 7.3333z" fill="#E8EDFC"/>
    <path d="m86.167 20.167h-5.5c6.0751 0 11 4.9249 11 11v20.167h5.5v-20.167c0-6.0751-4.9249-11-11-11z" fill="#CAD9FC"/>
    <path d="m71.5 51.333h-5.5c-4.0501 0-7.3333 3.2833-7.3333 7.3333v11c0 4.05 3.2832 7.3333 7.3333 7.3333h5.5c-4.0501 0-7.3333-3.2833-7.3333-7.3333v-11c0-4.05 3.2832-7.3333 7.3333-7.3333z" fill="#CAD9FC"/>
    <path d="m91.667 97.167c0 6.0753-4.9249 11-11 11h5.5c6.0751 0 11-4.925 11-11v-20.167h-5.5v20.167z" fill="#CAD9FC"/>
    <path d="m100.83 51.333h-29.333c-4.0501 0-7.3333 3.2833-7.3333 7.3333v11c0 4.05 3.2832 7.3333 7.3333 7.3333h29.333c4.05 0 7.334-3.2833 7.334-7.3333v-11c0-4.05-3.284-7.3333-7.334-7.3333z" fill="#E8EDFC"/>
    <path d="m100.83 51.333h-5.4997c4.0501 0 7.3337 3.2833 7.3337 7.3333v11c0 4.05-3.2836 7.3333-7.3337 7.3333h5.4997c4.05 0 7.334-3.2833 7.334-7.3333v-11c0-4.05-3.284-7.3333-7.334-7.3333z" fill="#CAD9FC"/>
    <path d="m77 69.667c3.0376 0 5.5-2.4624 5.5-5.5 0-3.0375-2.4624-5.5-5.5-5.5s-5.5 2.4625-5.5 5.5c0 3.0376 2.4624 5.5 5.5 5.5z" fill="#A4C2F7"/>
    <path d="m18.333 20.167s3.7785-13.706 24.556-9.79c12.863 2.4237 22.698-4.6713 26.556-8.0776 0.439-0.38787 1.036-0.54439 1.6088-0.4218 0.5728 0.12258 1.0534 0.50974 1.2952 1.0433l8.3179 17.246h-62.333z" fill="#A4C2F7"/>
    <path d="m72.349 2.9204c-0.2418-0.53356-0.7224-0.92072-1.2952-1.0433-0.5729-0.12259-1.1698 0.03393-1.6088 0.4218-0.5628 0.49683-1.2687 1.078-2.079 1.6922l7.8008 16.175h5.5l-8.3178-17.246z" fill="#7FACFA"/>
    <path d="m12.833 108.17h5.5c-6.0752 0-11-4.925-11-11v-66c0-6.0751 4.9248-11 11-11h-5.5c-6.0752 0-11 4.9249-11 11v66c0 6.0754 4.9249 11 11 11z" fill="#fff"/>
    <path d="m38.645 9.8138c-17.037-1.408-20.312 10.353-20.312 10.353h5.5s2.5374-9.1501 14.812-10.353z" fill="#fff"/>
    <path d="M0 31.1666H3.66667V45.8333H0V31.1666Z" fill="#fff"/>
    <path d="m1.8333 40.333c1.0125 0 1.8333-0.8208 1.8333-1.8333s-0.82081-1.8333-1.8333-1.8333c-1.0125 0-1.8333 0.8208-1.8333 1.8333s0.82081 1.8333 1.8333 1.8333z" fill="#428DFF"/>
    <path d="m12.833 110h73.333c7.0843-8e-3 12.825-5.749 12.833-12.833v-18.333h1.833c5.06-6e-3 9.161-4.1065 9.167-9.1666v-11c-6e-3 -5.0601-4.107-9.1606-9.167-9.1667h-1.833v-18.333c-0.0081-7.0843-5.749-12.825-12.833-12.833h-4.3487l-7.8192-16.208c-0.4996-1.0598-1.4712-1.8206-2.6198-2.0515-1.1236-0.23155-2.2905 0.081082-3.1478 0.84333-3.4669 3.0708-12.844 9.955-25.003 7.6578-18.176-3.4247-24.436 6.1215-26.129 9.7588h-4.2662c-7.0843 0.0081-12.825 5.7491-12.833 12.833 0 1.0125 0.82081 1.8333 1.8333 1.8333 1.0125 0 1.8333-0.8208 1.8333-1.8333 0.00606-5.0601 4.1066-9.1606 9.1666-9.1667h73.333c5.0601 0.0061 9.1606 4.1066 9.1666 9.1667v18.333h-23.833c-5.0601 0.0061-9.1606 4.1066-9.1667 9.1667v11c0.0061 5.0601 4.1066 9.1606 9.1667 9.1666h23.833v3.6667h-3.6666c-1.0126 0-1.8334 0.8208-1.8334 1.8333 0 1.0126 0.8208 1.8334 1.8334 1.8334h3.6666v11c-6e-3 5.0602-4.1065 9.1602-9.1666 9.1662h-73.333c-5.0601-6e-3 -9.1606-4.106-9.1666-9.1662v-51.333c0-1.0125-0.82081-1.8333-1.8333-1.8333-1.0125 0-1.8333 0.8208-1.8333 1.8333v51.333c0.0080825 7.0842 5.749 12.825 12.833 12.833zm29.716-97.821c13.75 2.5905 24.237-5.0856 28.147-8.4608l7.0492 14.615h-56.498c2.1157-3.3 7.733-8.7138 21.302-6.1545zm23.45 57.488v-11c0-3.0376 2.4624-5.5 5.5-5.5h29.333c3.038 0 5.5 2.4624 5.5 5.5v11c0 3.0375-2.462 5.5-5.5 5.5h-29.333c-3.0376 0-5.5-2.4625-5.5-5.5z" fill="#428DFF"/>
    <path d="m9.1666 73.333c-1.0125 0-1.8333 0.8208-1.8333 1.8333v22c0 3.0373 2.4624 5.5003 5.5 5.5003h5.5c1.0125 0 1.8333-0.821 1.8333-1.834 0-1.0122-0.8208-1.833-1.8333-1.833h-5.5c-1.0125 0-1.8333-0.8208-1.8333-1.8333v-22c0-1.0125-0.8208-1.8333-1.8334-1.8333z" fill="#428DFF"/>
    <path d="m27.5 102.67c1.0125 0 1.8333-0.821 1.8333-1.834 0-1.0123-0.8208-1.8331-1.8333-1.8331h-1.8334c-1.0125 0-1.8333 0.8208-1.8333 1.8331 0 1.013 0.8208 1.834 1.8333 1.834h1.8334z" fill="#428DFF"/>
    <path d="m89.833 45.833c1.0125 0 1.8333-0.8208 1.8333-1.8333v-12.833c0-3.0375-2.4624-5.5-5.5-5.5h-5.5c-1.0125 0-1.8333 0.8208-1.8333 1.8334 0 1.0125 0.8208 1.8333 1.8333 1.8333h5.5c1.0126 0 1.8334 0.8208 1.8334 1.8333v12.833c0 1.0125 0.8208 1.8333 1.8333 1.8333z" fill="#428DFF"/>
    <path d="m73.333 29.333c1.0125 0 1.8333-0.8208 1.8333-1.8333 0-1.0126-0.8208-1.8334-1.8333-1.8334h-1.8333c-1.0126 0-1.8334 0.8208-1.8334 1.8334 0 1.0125 0.8208 1.8333 1.8334 1.8333h1.8333z" fill="#428DFF"/>
    <path d="m77 56.833c-4.0501 0-7.3334 3.2833-7.3334 7.3334 0 4.05 3.2833 7.3333 7.3334 7.3333s7.3333-3.2833 7.3333-7.3333c0-4.0501-3.2832-7.3334-7.3333-7.3334zm0 11c-2.0251 0-3.6667-1.6416-3.6667-3.6666 0-2.0251 1.6416-3.6667 3.6667-3.6667 2.025 0 3.6666 1.6416 3.6666 3.6667 0 2.025-1.6416 3.6666-3.6666 3.6666z" fill="#428DFF"/>
    <path d="m84.333 86.167c1.0125 0 1.8334-0.8209 1.8334-1.8334s-0.8209-1.8333-1.8334-1.8333h-9.1667c-1.0125 0-1.8333 0.8208-1.8333 1.8333s0.8208 1.8334 1.8333 1.8334h9.1667z" fill="#428DFF"/>
  </g>
  <defs>
    <clipPath id="a">
      <rect width="110" height="110" fill="#fff"/>
    </clipPath>
  </defs>
</svg>
